common/src/main/resources/icons/general/separatorH.svg

<svg xmlns="http://www.w3.org/2000/svg" width="16" height="16" fill="#A1887F" data-big="true" viewBox="0 0 24 24"><path d="M2 9v2h20V9zm0 4v2h4v-2zm8 0v2h4v-2zm8 0v2h4v-2z"/></svg>

<!--
  - The MIT License (MIT)
  -
  - Copyright (c) 2015-2024 Elior "Mallowigi" Boukhobza
  -
  - Permission is hereby granted, free of charge, to any person obtaining a copy
  - of this software and associated documentation files (the "Software"), to deal
  - in the Software without restriction, including without limitation the rights
  - to use, copy, modify, merge, publish, distribute, sublicense, and/or sell
  - copies of the Software, and to permit persons to whom the Software is
  - furnished to do so, subject to the following conditions:
  -
  - The above copyright notice and this permission notice shall be included in all
  - copies or substantial portions of the Software.
  -
  - THE SOFTWARE IS PROVIDED "AS IS", WITHOUT WARRANTY OF ANY KIND, EXPRESS OR
  - IMPLIED, INCLUDING BUT NOT LIMITED TO THE WARRANTIES OF MERCHANTABILITY,
  - FITNESS FOR A PARTICULAR PURPOSE AND NONINFRINGEMENT. IN NO EVENT SHALL THE
  - AUTHORS OR COPYRIGHT HOLDERS BE LIABLE FOR ANY CLAIM, DAMAGES OR OTHER
  - LIABILITY, WHETHER IN AN ACTION OF CONTRACT, TORT OR OTHERWISE, ARISING FROM,
  - OUT OF OR IN CONNECTION WITH THE SOFTWARE OR THE USE OR OTHER DEALINGS IN THE
  - SOFTWARE.
  -->


<svg data-big="true" xmlns="http://www.w3.org/2000/svg" version="1.1" width="16px" height="16px" fill="#A1887F"
     viewBox="0 0 24 24">
  <path d="M2,9V11H22V9H2M2,13V15H6V13H2M10,13V15H14V13H10M18,13V15H22V13H18Z"/>
</svg>
